X:15
T:The Lark on the Strand
R:jig
O:Irish
S:Silver Apple News, 2004
D:Slan le Loch Erne 
Z:Paul Stewart Cranford (P.S.C.), <http://www.cranfordpub.com>
Q:300
L:1/8
M:6/8
K:G
ABA AGA|BGE ~G3|ABA GBd|edg dBG|
ABA AGA|BGE ~G3|ABA G2 B|dBG BdB:|
|:GBd ~g3|gba ~g3|GBd g2 d|egB dBA|
GBd ~g3|gba ~g3|aba agd|(e/f/g)e edB:|
